src/assets/images/logo-iPhone.svg

<svg width="138" height="38" viewBox="0 0 138 38" fill="none" xmlns="http://www.w3.org/2000/svg">
<path d="M5.88781 37H0.379997V11.0781H5.88781V37ZM0.0518723 4.21094C0.0518723 3.22656 0.317497 2.46875 0.848747 1.9375C1.39562 1.40625 2.16906 1.14062 3.16906 1.14062C4.13781 1.14062 4.88781 1.40625 5.41906 1.9375C5.96593 2.46875 6.23937 3.22656 6.23937 4.21094C6.23937 5.14844 5.96593 5.89062 5.41906 6.4375C4.88781 6.96875 4.13781 7.23438 3.16906 7.23438C2.16906 7.23438 1.39562 6.96875 0.848747 6.4375C0.317497 5.89062 0.0518723 5.14844 0.0518723 4.21094ZM31.7797 13.0938C31.7797 16.6719 30.6078 19.4141 28.2641 21.3203C25.9203 23.2266 22.5844 24.1797 18.2562 24.1797H14.6937V37H9.09218V2.73438H18.9594C23.2406 2.73438 26.4437 3.60938 28.5687 5.35938C30.7094 7.10938 31.7797 9.6875 31.7797 13.0938ZM14.6937 19.4688H17.6703C20.5453 19.4688 22.6547 18.9688 23.9984 17.9688C25.3422 16.9688 26.0141 15.4062 26.0141 13.2812C26.0141 11.3125 25.4125 9.84375 24.2094 8.875C23.0062 7.90625 21.1312 7.42188 18.5844 7.42188H14.6937V19.4688ZM57.7222 37H52.1909V21.0625C52.1909 19.0625 51.7847 17.5703 50.9722 16.5859C50.1753 15.6016 48.9019 15.1094 47.1519 15.1094C44.8394 15.1094 43.1362 15.8047 42.0425 17.1953C40.9644 18.5703 40.4253 20.8828 40.4253 24.1328V37H34.9175V0.53125H40.4253V9.78906C40.4253 11.2734 40.3316 12.8594 40.1441 14.5469H40.4956C41.2456 13.2969 42.2847 12.3281 43.6128 11.6406C44.9566 10.9531 46.5191 10.6094 48.3003 10.6094C54.5816 10.6094 57.7222 13.7734 57.7222 20.1016V37ZM85.2584 23.9922C85.2584 28.2266 84.1725 31.5312 82.0006 33.9062C79.8287 36.2812 76.8053 37.4688 72.9303 37.4688C70.5084 37.4688 68.3678 36.9219 66.5084 35.8281C64.6491 34.7344 63.2194 33.1641 62.2194 31.1172C61.2194 29.0703 60.7194 26.6953 60.7194 23.9922C60.7194 19.7891 61.7975 16.5078 63.9537 14.1484C66.11 11.7891 69.1491 10.6094 73.0709 10.6094C76.8209 10.6094 79.7897 11.8203 81.9772 14.2422C84.1647 16.6484 85.2584 19.8984 85.2584 23.9922ZM66.3912 23.9922C66.3912 29.9766 68.6022 32.9688 73.0241 32.9688C77.3991 32.9688 79.5866 29.9766 79.5866 23.9922C79.5866 18.0703 77.3834 15.1094 72.9772 15.1094C70.6647 15.1094 68.985 15.875 67.9381 17.4062C66.9069 18.9375 66.3912 21.1328 66.3912 23.9922ZM111.295 37H105.763V21.0625C105.763 19.0625 105.357 17.5703 104.545 16.5859C103.748 15.6016 102.474 15.1094 100.724 15.1094C98.3962 15.1094 96.6931 15.7969 95.615 17.1719C94.5369 18.5469 93.9978 20.8516 93.9978 24.0859V37H88.49V11.0781H92.8025L93.5759 14.4766H93.8572C94.6384 13.2422 95.7478 12.2891 97.1853 11.6172C98.6228 10.9453 100.217 10.6094 101.967 10.6094C108.185 10.6094 111.295 13.7734 111.295 20.1016V37ZM127.159 37.4688C123.128 37.4688 119.972 36.2969 117.69 33.9531C115.425 31.5938 114.292 28.3516 114.292 24.2266C114.292 19.9922 115.347 16.6641 117.456 14.2422C119.565 11.8203 122.464 10.6094 126.151 10.6094C129.573 10.6094 132.276 11.6484 134.261 13.7266C136.245 15.8047 137.237 18.6641 137.237 22.3047V25.2812H119.964C120.042 27.7969 120.722 29.7344 122.003 31.0938C123.284 32.4375 125.089 33.1094 127.417 33.1094C128.948 33.1094 130.37 32.9688 131.682 32.6875C133.011 32.3906 134.432 31.9062 135.948 31.2344V35.7109C134.604 36.3516 133.245 36.8047 131.87 37.0703C130.495 37.3359 128.925 37.4688 127.159 37.4688ZM126.151 14.7812C124.401 14.7812 122.995 15.3359 121.932 16.4453C120.886 17.5547 120.261 19.1719 120.057 21.2969H131.823C131.792 19.1562 131.276 17.5391 130.276 16.4453C129.276 15.3359 127.901 14.7812 126.151 14.7812Z" fill="#3F3F3F"/>
</svg>

<svg width="138" height="38" viewBox="0 0 138 38" 
    xmlns="http://www.w3.org/2000/svg" fill="none">
    <path d="M5.888 37h-5.508v-25.922h5.508v25.922zm-5.836-32.789c0-.984.266-1.742.797-2.273.547-.531 1.32-.797 2.32-.797.969 0 1.719.266 2.25.797.547.531.82 1.289.82 2.273 0 .938-.273 1.68-.82 2.227-.531.531-1.281.797-2.25.797-1 0-1.773-.266-2.32-.797-.531-.547-.797-1.289-.797-2.227zm31.728 8.883c0 3.578-1.172 6.32-3.516 8.226-2.344 1.906-5.68 2.859-10.008 2.859h-3.563v12.82h-5.602v-34.266h9.867c4.281 0 7.484.875 9.609 2.625 2.141 1.75 3.211 4.328 3.211 7.734zm-17.086 6.375h2.977c2.875 0 4.984-.5 6.328-1.5 1.344-1 2.016-2.563 2.016-4.688 0-1.969-.602-3.437-1.805-4.406-1.203-.969-3.078-1.453-5.625-1.453h-3.891v12.047zm43.029 17.531h-5.531v-15.938c0-2-.406-3.492-1.219-4.477-.797-.984-2.07-1.476-3.82-1.476-2.313 0-4.016.695-5.109 2.086-1.078 1.375-1.617 3.688-1.617 6.938v12.867h-5.508v-36.469h5.508v9.258c0 1.484-.094 3.07-.281 4.758h.352c.75-1.25 1.789-2.219 3.117-2.906 1.344-.688 2.906-1.031 4.688-1.031 6.281 0 9.422 3.164 9.422 9.492v16.898zm27.536-13.008c0 4.234-1.086 7.539-3.258 9.914-2.172 2.375-5.195 3.563-9.07 3.563-2.422 0-4.563-.547-6.422-1.641-1.859-1.094-3.289-2.664-4.289-4.711-1-2.047-1.5-4.422-1.5-7.125 0-4.203 1.078-7.484 3.234-9.844 2.156-2.359 5.195-3.539 9.117-3.539 3.75 0 6.719 1.211 8.906 3.633 2.188 2.406 3.281 5.656 3.281 9.75zm-18.867 0c0 5.984 2.211 8.977 6.633 8.977 4.375 0 6.563-2.992 6.563-8.977 0-5.922-2.203-8.883-6.609-8.883-2.313 0-3.992.766-5.039 2.297-1.031 1.531-1.547 3.727-1.547 6.586zm44.904 13.008h-5.532v-15.938c0-2-.406-3.492-1.218-4.477-.797-.984-2.071-1.476-3.821-1.476-2.328 0-4.031.688-5.109 2.063-1.078 1.375-1.617 3.68-1.617 6.914v12.914h-5.508v-25.922h4.313l.773 3.399h.281c.781-1.234 1.891-2.188 3.328-2.859 1.438-.672 3.032-1.008 4.782-1.008 6.218 0 9.328 3.164 9.328 9.492v16.898zm15.864.469c-4.031 0-7.187-1.172-9.469-3.516-2.265-2.359-3.398-5.601-3.398-9.726 0-4.234 1.055-7.563 3.164-9.984 2.109-2.422 5.008-3.633 8.695-3.633 3.422 0 6.125 1.039 8.11 3.117 1.984 2.078 2.976 4.938 2.976 8.578v2.976h-17.273c.078 2.516.758 4.453 2.039 5.813 1.281 1.344 3.086 2.016 5.414 2.016 1.531 0 2.953-.141 4.265-.422 1.329-.297 2.75-.781 4.266-1.453v4.477c-1.344.641-2.703 1.094-4.078 1.359-1.375.266-2.945.398-4.711.398zm-1.008-22.688c-1.75 0-3.156.555-4.219 1.664-1.046 1.109-1.671 2.727-1.875 4.852h11.766c-.031-2.141-.547-3.758-1.547-4.852-1-1.109-2.375-1.664-4.125-1.664z" fill="#3F3F3F"/>
</svg>
